X: 1451
T: the Limerick Lasses
B: O'Neill's 1850 #1451
Z: Bob Safranek, rjs@gsp.org
Z: Compacted via repeats and multiple endings [JC]
M: C|
L: 1/8
K: D
|:\
dBAF D2(EF) | GFGA BEEc | dBAF D2(EF) | GBAG [1 FDDc :|[2 FABc |]\
dcde f2(ed) | cdef gBBc |
| dfga b2(ag) | faeg fddc ||\
dcde fded | cdef gfga | bBbB b2(ag) | faeg fd Hd2 |]|\
AdBd AdBd |
| AdBd ceec | AdBd AdBd | efge fddB ||\
AdBd AdBd | Adfd ceef | gfec dcBA | Bdce fd "_D.C."d2 |]
